X: 1
T: String Quartet in E\b Major opus 33 no 2 mvt 4
C: Franz Joseph Haydn
%%abc-version 2.0
%%abcx-abcm2ps-target-version 5.9.1 (29 Sep 2008)
%%abc-creator hum2abc beta
%%abcx-conversion-date 2021/02/14 14:38:22
%%abc-copyright Copyright (c) 1994, 2000 Center for Computer Assisted Research in the Humanities
%%abc-edited-by Frances Bennion
%%abcx-initial-encoding-date 1997/04/15
%%gracespace 0 6 6
%%humdrum-veritas 684845901
%%humdrum-veritas-data 213440845
%%linebreak <none>
%%barnumbers 0
L: 1/8
M: 6/8
N: Derived from op33n2-04.krn
Q: "Finale: Presto"
%%staves [1 2 3 4]
V: 1
V: 2
V: 3 clef=alto
V: 4 clef=bass
K: Eb
[V:1]z4 zg [I:setbarnb1]|
[V:2]z4 zz |
[V:3]z4 zz |
[V:4]z4 zz |
[V:1]g2a fga |
[V:2]B2z A2z |
[V:3]G2z F2z |
[V:4]E,2z B,,2z |
[V:1]bge ezf |
[V:2]G2z4 |
[V:3]E2z4 |
[V:4]E,,2z4 |
[V:1]f2g edc |
[V:2]d2z =A2z |
[V:3]B2z F2z |
[V:4]z6 |
[V:1]B=AB Bz=B |
[V:2]F2z4 |
[V:3]D2z4 |
[V:4]z6 |
[V:1]=B2c AGF |
[V:2]E3 D3 |
[V:3]A,3 B,3 |
[V:4]A,6 |
[V:1]Bcd efg |
[V:2]E2z4 |
[V:3]B,2z4 |
[V:4]G,2z4 |
[V:1]a2z fed |
[V:2]c2z AGF |
[V:3]A,2z B,2z |
[V:4]F,2z B,2z |
[V:1]e2z3 f |
[V:2]E2z3 d |
[V:3]E,2z4 |
[V:4]E,2z4 |
[V:1]f2g de=e |
[V:2]d2e Bc^c |
[V:3]B,6- |
[V:4]B,6- |
[V:1]fdB Bzb |
[V:2]d2z3 G |
[V:3]B,2z4 |
[V:4]B,2z4 |
[V:1]b2=a b_af |
[V:2]G2^F G=FD |
[V:3]E6- |
[V:4]E,6- |
[V:1]bge ezb |
[V:2]G2z3 E |
[V:3]E2z3 E |
[V:4]E,2z3 G, |
[V:1]=bc'c' c'_bb |
[V:2]E3 =E3 |
[V:3]E3 c3 |
[V:4]A,3 G,3 |
[V:1]b3 a2f |
[V:2]F2z3 B |
[V:3]c2z3 B |
[V:4]F,2z3 D, |
[V:1]fgg gaf |
[V:2]B2>B2 cA |
[V:3]E3 A,3 |
[V:4]E,3 A,,3 |
[V:1]e3 d2B |
[V:2]G3 F2F |
[V:3]B,3 D3 |
[V:4]B,,6- |
[V:1]=ABc deA |
[V:2]_G6 |
[V:3]E6 |
[V:4]B,,6- |
[V:1]Bdf =abB |
[V:2]F6 |
[V:3]D6 |
[V:4]B,,6- |
[V:1]=ABc deA |
[V:2]_G6 |
[V:3]E6 |
[V:4]B,,6- |
[V:1]Bdf =abB |
[V:2]F6 |
[V:3]D6 |
[V:4]B,,6- |
[V:1]=ABc deA |
[V:2]_G6 |
[V:3]E6 |
[V:4]B,,6 |
[V:1]B2z3 B |
[V:2]F2z3 D |
[V:3]B,6- |
[V:4]B,,B,,B,, B,,2z |
[V:1]Bc2 <z2c |
[V:2]DE2 <z2E |
[V:3]B,6- |
[V:4]B,,B,,B,, B,,2z |
[V:1]cd2 <z2d |
[V:2]EF2 <z2B |
[V:3]B,6- |
[V:4]B,,B,,B,, B,,2z |
[V:1]dee e=ee |
[V:2]Bcc c^cc |
[V:3]B,6- |
[V:4]B,,2z B,,2z |
[V:1]=eff fgg |
[V:2]^cdd dee |
[V:3]B,6- |
[V:4]B,,2z B,,2z |
[V:1]g6 |
[V:2]=e6 |
[V:3]B,6- |
[V:4]B,,6- |
[V:1]a2z3 g |
[V:2]f2z4 |
[V:3]B,2z4 |
[V:4]B,,2z4 |
[V:1]g2a fga |
[V:2]B2z A2z |
[V:3]G2z F2z |
[V:4]E,2z B,,2z |
[V:1]bge ezf |
[V:2]G2z4 |
[V:3]E2z4 |
[V:4]E,,2z4 |
[V:1]f2g edc |
[V:2]d2z =A2z |
[V:3]B2z F2z |
[V:4]z6 |
[V:1]B=AB Bz=B |
[V:2]F2z4 |
[V:3]D2z4 |
[V:4]z6 |
[V:1]=B2c AGF |
[V:2]E3 D3 |
[V:3]A,3 B,3 |
[V:4]A,6 |
[V:1]Bcd efg |
[V:2]E2z4 |
[V:3]B,2z4 |
[V:4]G,2z4 |
[V:1]a2z fed |
[V:2]c2z AGF |
[V:3]A,2z B,2z |
[V:4]A,2z B,2z |
[V:1]e2z4 |
[V:2]E2z4 |
[V:3]E,2z4 |
[V:4]E,2z4 |
[V:1]e2z3 e |
[V:2]E3 c3 |
[V:3]E,2z4 |
[V:4]E,6- |
[V:1]_dec BcA |
[V:2]B2A G2F |
[V:3]z6 |
[V:4]E,6- |
[V:1]GAB B2e |
[V:2]EFG G2c |
[V:3]E,2z4 |
[V:4]E,6- |
[V:1]_dec BcA |
[V:2]B2A G2F |
[V:3]z6 |
[V:4]E,6- |
[V:1]GAB EFG |
[V:2]E3 _D3 |
[V:3]B,6 |
[V:4]E,6 |
[V:1]A4- [AA,]A |
[V:2]C3 C3 |
[V:3]A,3 A,3 |
[V:4]E,3 E,3 |
[V:1]GAB EFG |
[V:2]_D3 D3 |
[V:3]B,3 B,3 |
[V:4]E,3 E,3 |
[V:1]A,4- [A,A]A |
[V:2]C3 C3 |
[V:3]A,3 A,3 |
[V:4]E,3 E,3 |
[V:1]GAB EFG |
[V:2]_D3 D3 |
[V:3]B,3 B,3 |
[V:4]E,3 E,3 |
[V:1]ABc ABc |
[V:2]C3 C3 |
[V:3]A,3 A,3 |
[V:4]E,3 E,3 |
[V:1]GAB EFG |
[V:2]_D3 D3 |
[V:3]B,3 B,3 |
[V:4]E,3 E,3 |
[V:1]A4- AA |
[V:2]C3 C3 |
[V:3]A,3 A,3 |
[V:4]E,3 E,3 |
[V:1]GAB CD=E |
[V:2]B,3 B,3 |
[V:3]B,3 G,3 |
[V:4]C,6 |
[V:1]F4- FF |
[V:2]A,3 A,3 |
[V:3]F,3 F,3 |
[V:4]C,3 C,3 |
[V:1]=EFG CDE |
[V:2]B,3 B,3 |
[V:3]G,3 G,3 |
[V:4]C,3 C,3 |
[V:1]FGA FGA |
[V:2]A,3 A,3 |
[V:3]F,3 F,3 |
[V:4]C,3 C,3 |
[V:1]=EFG CDE |
[V:2]B,3 B,3 |
[V:3]G,3 G,3 |
[V:4]C,3 C,3 |
[V:1]F4- Fe |
[V:2]A,3 A,3 |
[V:3]F,3 F,3 |
[V:4]C,3 C,3 |
[V:1]def Bcd |
[V:2]A3 A3 |
[V:3]F3 F3 |
[V:4]B,,3 B,,3 |
[V:1][e3E3] e2e |
[V:2]G3 G3 |
[V:3]E3 E3 |
[V:4]B,,3 B,,3 |
[V:1]def Bcd |
[V:2]A3 A3 |
[V:3]F3 F3 |
[V:4]B,,3 B,,3 |
[V:1]efg efg |
[V:2]G3 G3 |
[V:3]E3 E3 |
[V:4]B,,3 B,,3 |
[V:1]def Bcd |
[V:2]A3 A3 |
[V:3]F3 F3 |
[V:4]B,,3 B,,3 |
[V:1]efg cde |
[V:2]G2>E2 FG |
[V:3]E3 E3 |
[V:4]E,3 A,3 |
[V:1]fga def |
[V:2]A2>F2 GA |
[V:3]F3 F3 |
[V:4]F,3 B,3 |
[V:1]gab efg |
[V:2]B2>G2 AB |
[V:3]G3 G3 |
[V:4]G,3 C3 |
[V:1]abc' bc'a |
[V:2]E3 F3 |
[V:3]C3 D3 |
[V:4]C,3 D,3 |
[V:1]gfe e'c'=a |
[V:2]G3 e3 |
[V:3]E3 =A2c |
[V:4]E,3 C,3 |
[V:1]bd'b e'c'=a |
[V:2]d3 e3 |
[V:3]B3 =A2c |
[V:4]B,,6- |
[V:1]bd'b e'c'=a |
[V:2]d3 e3 |
[V:3]B3 =A2c |
[V:4]B,,6 |
[V:1]bc'd' fg=a |
[V:2]d3 e3 |
[V:3]B3 c3 |
[V:4]B,,3 B,,3 |
[V:1]bc'd' fg=a |
[V:2]d3 e3 |
[V:3]B3 c3 |
[V:4]B,,3 B,,3 |
[V:1]b2z4 |
[V:2]d2z4 |
[V:3]B2z4 |
[V:4]B,,2z4 |
[V:1]=a2z4 |
[V:2]e2z4 |
[V:3]E2z4 |
[V:4]C,2z4 |
[V:1]a2z4 |
[V:2]f2z4 |
[V:3]B,2z4 |
[V:4]D,2z4 |
[V:1]z4 zg |
[V:2]z6 |
[V:3]z6 |
[V:4]z6 |
[V:1]g2a fga |
[V:2]B2z A2z |
[V:3]G2z F2z |
[V:4]E,2z B,,2z |
[V:1]bge ezf |
[V:2]G2z4 |
[V:3]E2z4 |
[V:4]E,,2z4 |
[V:1]f2g edc |
[V:2]d2z =A2z |
[V:3]B2z F2z |
[V:4]z6 |
[V:1]B=AB Bz=B |
[V:2]F2z4 |
[V:3]D2z4 |
[V:4]z6 |
[V:1]=B2c AGF |
[V:2]E3 D3 |
[V:3]A,3 B,3 |
[V:4]A,6 |
[V:1]Bcd efg |
[V:2]E2z4 |
[V:3]B,2z4 |
[V:4]G,2z4 |
[V:1]a2z fed |
[V:2]c2z AGF |
[V:3]A,2z B,2z |
[V:4]A,2z B,2z |
[V:1]e2z3 f |
[V:2]E2z3 d |
[V:3]E,2z4 |
[V:4]E,2z4 |
[V:1]f2g de=e |
[V:2]d2e Bc^c |
[V:3]B,6- |
[V:4]B,6- |
[V:1]fdB Bzb |
[V:2]d2z3 G |
[V:3]B,2z4 |
[V:4]B,2z4 |
[V:1]b2=a b_af |
[V:2]G2^F G=FD |
[V:3]E6- |
[V:4]E,6- |
[V:1]bge ezb |
[V:2]G2z3 E |
[V:3]E2z3 E |
[V:4]E,2z3 G, |
[V:1]=bc'c' c'_bb |
[V:2]E3 =E3 |
[V:3]E3 c3- |
[V:4]A,3 G,3 |
[V:1]b3 a2f |
[V:2]F2z3 B |
[V:3]c2z3 B |
[V:4]F,3 z2D, |
[V:1]fgg gaf |
[V:2]B2>B2 cA |
[V:3]E3 A,3 |
[V:4]E,3 A,,3 |
[V:1]e3 d2B |
[V:2]G3 F2F |
[V:3]B,3 D3 |
[V:4]B,,6- |
[V:1]=ABc deA |
[V:2]_G6 |
[V:3]E6 |
[V:4]B,,6- |
[V:1]Bdf =abB |
[V:2]F6 |
[V:3]D6 |
[V:4]B,,6- |
[V:1]=ABc deA |
[V:2]_G6 |
[V:3]E6 |
[V:4]B,,6- |
[V:1]Bdf =abB |
[V:2]F6 |
[V:3]D6 |
[V:4]B,,6- |
[V:1]=ABc deA |
[V:2]_G6 |
[V:3]E6 |
[V:4]B,,6 |
[V:1]B2z3 B |
[V:2]F2z3 D |
[V:3]B,6- |
[V:4]B,,B,,B,, B,,2z |
[V:1]Bc2 <z2c |
[V:2]DE2 <z2E |
[V:3]B,6- |
[V:4]B,,B,,B,, B,,2z |
[V:1]cd2 <z2d |
[V:2]EF2 <z2B |
[V:3]B,6- |
[V:4]B,,B,,B,, B,,2z |
[V:1]dee e=ee |
[V:2]Bcc c^cc |
[V:3]B,6- |
[V:4]B,,2z B,,2z |
[V:1]=eff fgg |
[V:2]^cdd dee |
[V:3]B,6- |
[V:4]B,,2z B,,2z |
[V:1]g6 |
[V:2]=e6 |
[V:3]B,6- |
[V:4]B,,6- |
[V:1]a2z3 g |
[V:2]f2z4 |
[V:3]B,2z4 |
[V:4]B,,2z4 |
[V:1]g2a fga |
[V:2]B2z A2z |
[V:3]G2z F2z |
[V:4]E,2z B,,2z |
[V:1]bge ezf |
[V:2]G2z4 |
[V:3]E2z4 |
[V:4]E,,2z4 |
[V:1]f2g edc |
[V:2]d2z =A2z |
[V:3]B2z F2z |
[V:4]z6 |
[V:1]B=AB Bz=B |
[V:2]F2z4 |
[V:3]D2z4 |
[V:4]z6 |
[V:1]=B2c AGF |
[V:2]E3 D3 |
[V:3]A,3 B,3 |
[V:4]A,6 |
[V:1]Bcd efg |
[V:2]E2z4 |
[V:3]B,2z4 |
[V:4]G,2z4 |
[V:1]a2z fed |
[V:2]c2z AGF |
[V:3]A,2z B,2z |
[V:4]F,2z B,2z |
[V:1]e2z3 e' |
[V:2]E3 c3 |
[V:3]E2z4 |
[V:4]E,6- |
[V:1]d'e'c' bc'a |
[V:2]B2A G2F |
[V:3]z6 |
[V:4]E,6- |
[V:1]gab b2e' |
[V:2]EFG G2c |
[V:3][E2G,2]z4 |
[V:4]E,6- |
[V:1]d'e'c' bc'a |
[V:2]B2A G2F |
[V:3]z6 |
[V:4]E,6- |
[V:1]gab bbb |
[V:2]EFG G2g |
[V:3][G,2E2]z3 e |
[V:4]E,2z4 |
[V:1]bbb bbb |
[V:2]fge dec |
[V:3]dec BcA |
[V:4]z6 |
[V:1]bbb bbb |
[V:2]BcA G2B |
[V:3]GAF E2G |
[V:4]z4 zE |
[V:1]bbb bbb |
[V:2]BBB BBB |
[V:3]FGE DEC |
[V:4]DEC B,CA, |
[V:1]bbb bbb |
[V:2]BcA GAF |
[V:3]B,2z3 B |
[V:4]G,A,F, E,F,D, |
[V:1]bc'd' e'c'a |
[V:2]Eee eee |
[V:3]BAA A2z |
[V:4]C,C,C, C,C,C, |
[V:1]agg g2g |
[V:2]ddd ddd |
[V:3]z4 zG |
[V:4]B,,B,,B,, B,,B,,B,, |
[V:1]gab c'af |
[V:2]ccc ccc |
[V:3]GFF F2z |
[V:4]A,,A,,A,, A,,A,,A,, |
[V:1]fee e2e |
[V:2]BBB BBB |
[V:3]z6 |
[V:4]G,,G,,G,, G,,2z |
[V:1]dBb afb |
[V:2]A2z A2z |
[V:3]F2z F2z |
[V:4]B,,2z B,,2z |
[V:1]geB GEe |
[V:2]G2z4 |
[V:3]E2z4 |
[V:4]E,2z4 |
[V:1]dBb afb |
[V:2]d2z d2z |
[V:3]F2z F2z |
[V:4]B,,2z B,,2z |
[V:1]geB GEg |
[V:2]e2z4 |
[V:3]G2z4 |
[V:4]E,2z4 |
[V:1]agf =ega |
[V:2]z3 B2z |
[V:3]z3 B2z |
[V:4]z3 G,2z |
[V:1]bag fab |
[V:2]z3 c2z |
[V:3]z3 A2z |
[V:4]z3 A,2z |
[V:1]c'ba c'ba |
[V:2]z3 f2z |
[V:3]z3 c2z |
[V:4]z3 A,2z |
[V:1]c'ba gfe |
[V:2]f2z e2z |
[V:3]c2z c2z |
[V:4]A,2z =A,2z |
[V:1]df=a bd'b |
[V:2]d6 |
[V:3]B3 F3 |
[V:4]B,B,B, B,B,B, |
[V:1]=ac'a e'c'a |
[V:2]e6 |
[V:3]_G6 |
[V:4]B,B,B, B,B,B, |
[V:1]bdf bd'b |
[V:2]d6 |
[V:3]F6 |
[V:4]B,B,B, B,B,B, |
[V:1]=ac'a e'c'a |
[V:2]e6 |
[V:3]_G6 |
[V:4]B,B,B, B,B,B, |
[V:1]b2z3 =a |
[V:2]d2z3 e |
[V:3]F2z3 c |
[V:4]B,2z4 |
[V:1]=ab2 <z2a |
[V:2]ed2 <z2e |
[V:3]cB2 <z2c |
[V:4]B,2z4 |
[V:1]=ab2 <z2a |
[V:2]ed2 <z2e |
[V:3]cB2 <z2c |
[V:4]B,2z4 |
[V:1]=abz4 |
[V:2]edz4 |
[V:3]cBz4 |
[V:4]B,2z4 |
[V:1]z4 zg |
[V:2]z4 z=e |
[V:3]z6 |
[V:4]z6 |
[V:1]ga2 <z2g |
[V:2]=ef2 <z2e |
[V:3]B,2z4 |
[V:4]B,2z4 |
[V:1]ga2 <z2g |
[V:2]=ef2 <z2e |
[V:3]B,2z4 |
[V:4]B,2z4 |
[V:1]g6 |
[V:2]=e6 |
[V:3]B,6 |
[V:4]B,6- |
[V:1]a3 z2g |
[V:2]f3 z3 |
[V:3]D,3 z3 |
[V:4]B,3 z3 |
[V:1]g2a fga |
[V:2]B2z A2z |
[V:3]G2z F2z |
[V:4]E,2z B,,2z |
[V:1]bge e2f |
[V:2]G2z4 |
[V:3]E2z4 |
[V:4]E,,2z4 |
[V:1]f2g edc |
[V:2]d2z =A2z |
[V:3]B2z F2z |
[V:4]z6 |
[V:1]B=AB B2=B |
[V:2]F2z4 |
[V:3]D2z4 |
[V:4]z6 |
[V:1]=B2c AGF |
[V:2]E3 D3 |
[V:3]A,3 B,3 |
[V:4]A,6 |
[V:1]Bcd efg |
[V:2]E2z4 |
[V:3]B,2z4 |
[V:4]G,2z4 |
[V:1]a2z fed |
[V:2]c2z AGF |
[V:3]A,3 B,3 |
[V:4]F,2z B,2z |
[V:1]e2z z2[M:2/4]z/ [c/D/]|
[V:2]E2z z2[M:2/4]z/ [A/A,/]|
[V:3]E,2z z2[M:2/4]z/ F,/|
[V:4]E,2z z2[M:2/4]z/ B,,/|
[V:1][D2c2]B//A/z// G//F/z//|
[V:2][A2A,2]F z|
[V:3]F,2D z|
[V:4]B,,3 z|
[V:1]Bz2 z/[A/A,/]|
[V:2]Ez2 z/C/|
[V:3]B,z2 z/C/|
[V:4]G,,z2 z/A,,/|
[V:1][A,2A2]G//F/z// E//D/z//|
[V:2]C2A, z|
[V:3]C2D z|
[V:4]A,,2B,, z|
[V:1]Ez!fermata!z [M:6/8]g|
[V:2]G,z!fermata!z [M:6/8]z|
[V:3]Ez!fermata!z [M:6/8]z|
[V:4]E,,z!fermata!z [M:6/8]z|
[V:1]g2a fga |
[V:2]B2z A2z |
[V:3]G2z F2z |
[V:4]E,2z B,,2z |
[V:1]bge ez2 |
[V:2]G2z4 |
[V:3]E2z4 |
[V:4]E,,2z4 |
[V:1]z6 |
[V:2]z6 |
[V:3]z6 |
[V:4]z6 |
[V:1]z4 zf |
[V:2]z6 |
[V:3]z6 |
[V:4]z6 |
[V:1]f2g edc |
[V:2]d2z =A2z |
[V:3]B2z F2z |
[V:4]z6 |
[V:1]B=AB Bz2 |
[V:2]F2z4 |
[V:3]D2z4 |
[V:4]z6 |
[V:1]z6 |
[V:2]z6 |
[V:3]z6 |
[V:4]z6 |
[V:1]z4 z=B |
[V:2]z6 |
[V:3]z6 |
[V:4]z6 |
[V:1]=B2c AGF |
[V:2]E3 D3 |
[V:3]A,3 B,3 |
[V:4]A,6 |
[V:1]Bcd ez2 |
[V:2]E2z4 |
[V:3]B,2z4 |
[V:4]G,2z4 |
[V:1]z6 |
[V:2]z6 |
[V:3]z6 |
[V:4]z6 |
[V:1]z4 zg |
[V:2]z6 |
[V:3]z6 |
[V:4]z6 |
[V:1]g2a fed |
[V:2]c3 A3 |
[V:3]C2>D2 EF |
[V:4]A,,3 B,,3 |
[V:1]e2z4 |
[V:2]G2z4 |
[V:3]E2z4 |
[V:4]E,2z4 |
[V:1]z6 |
[V:2]z6 |
[V:3]z6 |
[V:4]z6 |
[V:1]z6 |
[V:2]z6 |
[V:3]z6 |
[V:4]z6 |
[V:1]z6 |
[V:2]z6 |
[V:3]z6 |
[V:4]z6 |
[V:1]z4 zg |
[V:2]z6 |
[V:3]z6 |
[V:4]z6 |
[V:1]g2a fga |
[V:2]B2z A2z |
[V:3]G2z F2z |
[V:4]E,2z B,,2z |
[V:1]bge ez2 |]
[V:2]G2z4 |]
[V:3]E2z4 |]
[V:4]E,,2z4 |]

